assets/9_diamonds.svg

<svg width="822" height="1122" fill="none" xmlns="http://www.w3.org/2000/svg"><rect width="822" height="1122" rx="50" fill="#F1F7EE"/><path d="M121.334 1085.5v-4.9c0-1 .5-1.5 1.5-1.5h5.3v-51.9h-5.2c-1 0-1.5-.5-1.5-1.5v-5.1c0-1.07.5-1.6 1.5-1.6 8-.33 15.6-.5 22.8-.5 7.2 0 12.933 1.4 17.2 4.2 4.333 2.73 6.5 6.67 6.5 11.8 0 3.73-1.167 7-3.5 9.8-2.267 2.73-4.967 4.73-8.1 6 5.133.8 9.033 2.7 11.7 5.7 2.733 3 4.1 6.67 4.1 11 0 5.67-2.1 10.27-6.3 13.8-4.2 3.47-9.767 5.43-16.7 5.9-2.867.2-7.467.3-13.8.3h-14c-1 0-1.5-.5-1.5-1.5Zm18-30v23.8h4.5c5.866 0 10.4-.93 13.6-2.8 3.266-1.87 4.9-5.1 4.9-9.7 0-7.53-5.267-11.3-15.8-11.3h-7.2Zm0-28.9v20.6h3.8c9.866 0 14.8-3.43 14.8-10.3 0-3.87-1.2-6.53-3.6-8-2.4-1.53-5.834-2.3-10.3-2.3h-4.7Zm87.791 52.5h4.4c1 0 1.5.5 1.5 1.5v4.9c0 1-.5 1.5-1.5 1.5h-11.2c-.8 0-1.3-.5-1.5-1.5l-.9-5.6c-4.267 5.53-9.867 8.3-16.8 8.3-10.8 0-16.2-5.67-16.2-17v-25.5h-5.3c-1 0-1.5-.5-1.5-1.5v-5.2c0-1 .5-1.5 1.5-1.5h15c1 0 1.5.5 1.5 1.5v29.2c0 4 .5 6.87 1.5 8.6 1.067 1.67 3.267 2.5 6.6 2.5 3.4 0 6.2-1 8.4-3s3.3-4.27 3.3-6.8v-23.8h-6.3c-1 0-1.5-.5-1.5-1.5v-5.2c0-1 .5-1.5 1.5-1.5h16c1 0 1.5.5 1.5 1.5v40.1Zm14.463-27.3c0-4.4 1.7-8.07 5.1-11 3.4-2.93 7.7-4.4 12.9-4.4s9.7.6 13.5 1.8c.934.27 1.4.87 1.4 1.8v10.6c0 1-.5 1.5-1.5 1.5h-5.8c-1.066 0-1.5-.5-1.3-1.5l.5-5.1c-2-1.07-4.2-1.6-6.6-1.6-5.333 0-8 1.87-8 5.6 0 1.93.867 3.47 2.6 4.6 1.734 1.13 3.834 2.07 6.3 2.8 2.467.67 4.934 1.47 7.4 2.4 2.534.87 4.667 2.4 6.4 4.6 1.734 2.13 2.6 4.87 2.6 8.2 0 5.07-1.766 9.03-5.3 11.9-3.533 2.8-8.5 4.2-14.9 4.2-4.466 0-9.166-.67-14.1-2-.866-.27-1.3-.9-1.3-1.9v-10.6c0-1 .5-1.5 1.5-1.5h5.8c1 0 1.467.5 1.4 1.5l-.3 5.2c1.8 1.33 4.367 2 7.7 2 5.934 0 8.9-2.1 8.9-6.3 0-2.13-.866-3.8-2.6-5-1.666-1.27-3.733-2.23-6.2-2.9a184.3 184.3 0 0 1-7.3-2.2c-2.466-.87-4.566-2.33-6.3-4.4-1.666-2.13-2.5-4.9-2.5-8.3Zm57.464-6.1v25.2c0 3.13.4 5.4 1.2 6.8.8 1.4 2.3 2.1 4.5 2.1s4.334-.47 6.4-1.4c.734-.27 1.267 0 1.6.8l1.8 4.6c.067.2.1.5.1.9 0 .33-.333.7-1 1.1-3.2 1.6-7 2.4-11.4 2.4-5.933 0-9.833-1.53-11.7-4.6-1.333-2-2.1-3.93-2.3-5.8-.266-2.53-.4-5.2-.4-8v-24.1h-5.7c-1 0-1.5-.5-1.5-1.5v-5.2c0-1 .5-1.5 1.5-1.5h5.7V1024c0-1 .5-1.5 1.5-1.5h8.2c1 0 1.5.5 1.5 1.5v13.5h10.1c1 0 1.5.5 1.5 1.5v5.2c0 1-.5 1.5-1.5 1.5h-10.1Zm69.834 11.6v-3.5c0-4.73-1.333-7.7-4-8.9-1.267-.53-3.1-.8-5.5-.8-4.533 0-7.267 2.13-8.2 6.4-.2 1-.7 1.5-1.5 1.5h-6.4c-1.067 0-1.533-.5-1.4-1.5.267-4.87 2.233-8.43 5.9-10.7 3.667-2.27 8.333-3.4 14-3.4 11.933 0 17.9 5.47 17.9 16.4v26.3h4.3c1 0 1.5.5 1.5 1.5v4.9c0 1-.5 1.5-1.5 1.5h-11.8c-.867 0-1.367-.5-1.5-1.5l-.7-4.6c-3.6 4.87-8.8 7.3-15.6 7.3-4.267 0-7.8-1.1-10.6-3.3-2.8-2.27-4.2-5.87-4.2-10.8 0-6.47 2.7-10.9 8.1-13.3 4.467-2.07 9.8-3.2 16-3.4 1.267 0 3-.03 5.2-.1Zm.2 14.6v-7.7c-6.4 0-10.333.3-11.8.9-1.467.6-2.767 1.2-3.9 1.8-2.133 1.13-3.2 3.2-3.2 6.2 0 4.6 2.633 6.9 7.9 6.9 3.467 0 6.167-.8 8.1-2.4 1.933-1.67 2.9-3.57 2.9-5.7Zm59.461-25.8c1.133-2.67 2.967-4.93 5.5-6.8 2.533-1.93 5.3-2.9 8.3-2.9 3 0 5.3.27 6.9.8.8.27 1.2.87 1.2 1.8v13.5c0 1-.5 1.5-1.5 1.5h-6.5c-1 0-1.467-.5-1.4-1.5l.4-5.8c-.333-.07-.9-.1-1.7-.1-3.067 0-5.6 1.27-7.6 3.8-2 2.47-3 5.8-3 10v18.7h11c1 0 1.5.5 1.5 1.5v4.9c0 1-.5 1.5-1.5 1.5h-27.5c-1 0-1.5-.5-1.5-1.5v-4.9c0-1 .5-1.5 1.5-1.5h5.3v-33.4h-5.4c-1 0-1.5-.5-1.5-1.5v-5.2c0-1 .5-1.5 1.5-1.5h13.2c.933 0 1.5.5 1.7 1.5l1.1 7.1Zm27.117-27v-5.2c0-1 .5-1.5 1.5-1.5h15.1c1 0 1.5.5 1.5 1.5v30.8c3.733-5.53 8.9-8.3 15.5-8.3 10.333 0 15.5 5.67 15.5 17v25.7h5.9c1 0 1.5.5 1.5 1.5v4.9c0 1-.5 1.5-1.5 1.5h-21.9c-1 0-1.5-.5-1.5-1.5v-4.9c0-1 .5-1.5 1.5-1.5h4.8v-20.7c0-4.2-.533-7.27-1.6-9.2-1.067-1.93-3.267-2.9-6.6-2.9-3.333 0-6.1 1-8.3 3-2.2 2-3.3 4.27-3.3 6.8v23h6.1c1 0 1.5.5 1.5 1.5v4.9c0 1-.5 1.5-1.5 1.5h-22.7c-1 0-1.5-.5-1.5-1.5v-4.9c0-1 .5-1.5 1.5-1.5h5.4v-58.5h-5.4c-1 0-1.5-.5-1.5-1.5Zm74.363 19.8 11.7 36.4 10.4-29.6h-5.1c-1 0-1.5-.5-1.5-1.5v-5.2c0-1 .5-1.5 1.5-1.5h14.6c.8 0 1.334.23 1.6.7.267.47.4.9.4 1.3 0 .33-.066.67-.2 1l-21.4 55.9c-1 2.53-1.866 4.47-2.6 5.8-.666 1.4-1.633 2.87-2.9 4.4-2.466 2.93-6.1 4.4-10.9 4.4-4.8 0-8.733-.73-11.8-2.2-.533-.27-.8-.6-.8-1s.034-.7.1-.9l1.7-4.9c.267-.87.9-1.17 1.9-.9 3.2 1.07 5.8 1.6 7.8 1.6 2.067 0 3.634-.53 4.7-1.6 1.134-1 2.3-3.13 3.5-6.4l2.5-6.6-15.2-42.4h-5c-1 0-1.5-.5-1.5-1.5v-5.2c0-1 .5-1.5 1.5-1.5h13.1c1 0 1.634.47 1.9 1.4Zm37.856 5.3v-5.2c0-1 .5-1.5 1.5-1.5h13.7c.866 0 1.366.5 1.5 1.5l.8 5.8c3.466-5.6 8.666-8.4 15.6-8.4 6.933 0 11.5 2.93 13.7 8.8 3.6-5.87 8.833-8.8 15.7-8.8 10.333 0 15.5 5.67 15.5 17v25.7h5.7c1 0 1.5.5 1.5 1.5v4.9c0 1-.5 1.5-1.5 1.5h-22c-1 0-1.5-.5-1.5-1.5v-4.9c0-1 .5-1.5 1.5-1.5h5.1v-20.7c0-4.2-.534-7.27-1.6-9.2-1.067-1.93-3.234-2.9-6.5-2.9-3.2 0-5.767.87-7.7 2.6-1.934 1.73-2.9 3.77-2.9 6.1v24.1h4.8c1 0 1.5.5 1.5 1.5v4.9c0 1-.5 1.5-1.5 1.5h-20.5c-1 0-1.5-.5-1.5-1.5v-4.9c0-1 .5-1.5 1.5-1.5h4.5v-20.7c0-4.2-.534-7.27-1.6-9.2-1.067-1.93-3.267-2.9-6.6-2.9-3.267 0-5.867 1-7.8 3-1.867 1.93-2.8 4.2-2.8 6.8v23h6.1c1 0 1.5.5 1.5 1.5v4.9c0 1-.5 1.5-1.5 1.5h-22.6c-1 0-1.5-.5-1.5-1.5v-4.9c0-1 .5-1.5 1.5-1.5h5.3v-33.4h-5.4c-1 0-1.5-.5-1.5-1.5Zm113.258 44c-7.934 0-13.767-2.3-17.5-6.9-3.667-4.67-5.5-10.8-5.5-18.4 0-7.67 1.966-14 5.9-19 3.933-5 9.6-7.5 17-7.5 3.666 0 6.8.7 9.4 2.1 2.666 1.33 4.7 3.17 6.1 5.5 2.666 4.53 4 9.77 4 15.7 0 2.8-.134 4.33-.4 4.6-.267.27-.767.4-1.5.4h-29.4c.333 4.8 1.5 8.53 3.5 11.2 2.066 2.6 5.6 3.9 10.6 3.9 3.666 0 7.433-.87 11.3-2.6.933-.47 1.6-.2 2 .8l1.9 4.6c.333.8.033 1.47-.9 2-4.4 2.4-9.9 3.6-16.5 3.6Zm-11.9-30.9h20.8c.133-8.33-3.134-12.5-9.8-12.5-3.934 0-6.734 1.27-8.4 3.8-1.6 2.47-2.467 5.37-2.6 8.7Z" fill="#000"/><path d="m246.142 546.858 150.716-150.716c7.81-7.81 20.474-7.81 28.284 0l150.716 150.716c7.81 7.81 7.81 20.474 0 28.284L425.142 725.858c-7.81 7.81-20.474 7.81-28.284 0L246.142 575.142c-7.81-7.81-7.81-20.474 0-28.284Z" fill="#F7081D"/><mask id="a" style="mask-type:alpha" maskUnits="userSpaceOnUse" x="411" y="390" width="171" height="342"><path fill="#D9D9D9" d="M411 390h171v342H411z"/></mask><g mask="url(#a)"><path d="m246.142 546.858 150.716-150.716c7.81-7.81 20.474-7.81 28.284 0l150.716 150.716c7.81 7.81 7.81 20.474 0 28.284L425.142 725.858c-7.81 7.81-20.474 7.81-28.284 0L246.142 575.142c-7.81-7.81-7.81-20.474 0-28.284Z" fill="#DC1021"/></g><path d="m83.535 366.464 42.929-42.928a5 5 0 0 1 7.072 0l42.928 42.928a5 5 0 0 1 0 7.072l-42.928 42.928a5 5 0 0 1-7.072 0l-42.928-42.928a5.001 5.001 0 0 1 0-7.072Z" fill="#F7081D"/><mask id="b" style="mask-type:alpha" maskUnits="userSpaceOnUse" x="130" y="322" width="48" height="96"><rect x="130" y="322.235" width="47.765" height="95.531" rx="5" fill="#D9D9D9"/></mask><g mask="url(#b)"><path d="m83.535 366.464 42.929-42.928a5 5 0 0 1 7.072 0l42.928 42.928a5 5 0 0 1 0 7.072l-42.928 42.928a5 5 0 0 1-7.072 0l-42.928-42.928a5.001 5.001 0 0 1 0-7.072Z" fill="#DC1021"/></g><path d="M119.815 274.6c-33 0-50.6-14.9-52.8-44.7-.2-2.2.1-3.7.9-4.5.8-.8 2.3-1.2 4.5-1.2h16.5c2.4 0 4 .4 4.8 1.2.8.6 1.6 3.2 2.4 7.8 2.2 10.8 10.5 16.2 24.9 16.2 28.8 0 43.7-22.1 44.7-66.3-10.6 14.8-25.8 22.2-45.6 22.2-19.6 0-34.4-5.8-44.4-17.4-10-11.6-15-27.2-15-46.8 0-19.8 6-36.1 18-48.9 12-13 29.2-19.5 51.6-19.5 46 0 69 30.3 69 90.9 0 74-26.5 111-79.5 111Zm9.3-95.4c9.2 0 17-2.5 23.4-7.5 6.6-5 10.6-11.9 12-20.7.4-2.2.6-5.7.6-10.5 0-11.8-2.8-21.9-8.4-30.3-5.6-8.6-14.8-12.9-27.6-12.9-23.6 0-35.4 13.7-35.4 41.1 0 27.2 11.8 40.8 35.4 40.8Z" fill="#000"/></svg>

<svg width="822" height="1122" viewBox="0 0 822 1122" fill="none" xmlns="http://www.w3.org/2000/svg">
<rect width="822" height="1122" rx="50" fill="#F1F7EE"/>
<path d="M121.334 1085.5V1080.6C121.334 1079.6 121.834 1079.1 122.834 1079.1H128.134V1027.2H122.934C121.934 1027.2 121.434 1026.7 121.434 1025.7V1020.6C121.434 1019.53 121.934 1019 122.934 1019C130.934 1018.67 138.534 1018.5 145.734 1018.5C152.934 1018.5 158.667 1019.9 162.934 1022.7C167.267 1025.43 169.434 1029.37 169.434 1034.5C169.434 1038.23 168.267 1041.5 165.934 1044.3C163.667 1047.03 160.967 1049.03 157.834 1050.3C162.967 1051.1 166.867 1053 169.534 1056C172.267 1059 173.634 1062.67 173.634 1067C173.634 1072.67 171.534 1077.27 167.334 1080.8C163.134 1084.27 157.567 1086.23 150.634 1086.7C147.767 1086.9 143.167 1087 136.834 1087H122.834C121.834 1087 121.334 1086.5 121.334 1085.5ZM139.334 1055.5V1079.3H143.834C149.7 1079.3 154.234 1078.37 157.434 1076.5C160.7 1074.63 162.334 1071.4 162.334 1066.8C162.334 1059.27 157.067 1055.5 146.534 1055.5H139.334ZM139.334 1026.6V1047.2H143.134C153 1047.2 157.934 1043.77 157.934 1036.9C157.934 1033.03 156.734 1030.37 154.334 1028.9C151.934 1027.37 148.5 1026.6 144.034 1026.6H139.334ZM227.125 1079.1H231.525C232.525 1079.1 233.025 1079.6 233.025 1080.6V1085.5C233.025 1086.5 232.525 1087 231.525 1087H220.325C219.525 1087 219.025 1086.5 218.825 1085.5L217.925 1079.9C213.658 1085.43 208.058 1088.2 201.125 1088.2C190.325 1088.2 184.925 1082.53 184.925 1071.2V1045.7H179.625C178.625 1045.7 178.125 1045.2 178.125 1044.2V1039C178.125 1038 178.625 1037.5 179.625 1037.5H194.625C195.625 1037.5 196.125 1038 196.125 1039V1068.2C196.125 1072.2 196.625 1075.07 197.625 1076.8C198.692 1078.47 200.892 1079.3 204.225 1079.3C207.625 1079.3 210.425 1078.3 212.625 1076.3C214.825 1074.3 215.925 1072.03 215.925 1069.5V1045.7H209.625C208.625 1045.7 208.125 1045.2 208.125 1044.2V1039C208.125 1038 208.625 1037.5 209.625 1037.5H225.625C226.625 1037.5 227.125 1038 227.125 1039V1079.1ZM241.588 1051.8C241.588 1047.4 243.288 1043.73 246.688 1040.8C250.088 1037.87 254.388 1036.4 259.588 1036.4C264.788 1036.4 269.288 1037 273.088 1038.2C274.022 1038.47 274.488 1039.07 274.488 1040V1050.6C274.488 1051.6 273.988 1052.1 272.988 1052.1H267.188C266.122 1052.1 265.688 1051.6 265.888 1050.6L266.388 1045.5C264.388 1044.43 262.188 1043.9 259.788 1043.9C254.455 1043.9 251.788 1045.77 251.788 1049.5C251.788 1051.43 252.655 1052.97 254.388 1054.1C256.122 1055.23 258.222 1056.17 260.688 1056.9C263.155 1057.57 265.622 1058.37 268.088 1059.3C270.622 1060.17 272.755 1061.7 274.488 1063.9C276.222 1066.03 277.088 1068.77 277.088 1072.1C277.088 1077.17 275.322 1081.13 271.788 1084C268.255 1086.8 263.288 1088.2 256.888 1088.2C252.422 1088.2 247.722 1087.53 242.788 1086.2C241.922 1085.93 241.488 1085.3 241.488 1084.3V1073.7C241.488 1072.7 241.988 1072.2 242.988 1072.2H248.788C249.788 1072.2 250.255 1072.7 250.188 1073.7L249.888 1078.9C251.688 1080.23 254.255 1080.9 257.588 1080.9C263.522 1080.9 266.488 1078.8 266.488 1074.6C266.488 1072.47 265.622 1070.8 263.888 1069.6C262.222 1068.33 260.155 1067.37 257.688 1066.7C255.288 1066.03 252.855 1065.3 250.388 1064.5C247.922 1063.63 245.822 1062.17 244.088 1060.1C242.422 1057.97 241.588 1055.2 241.588 1051.8ZM299.052 1045.7V1070.9C299.052 1074.03 299.452 1076.3 300.252 1077.7C301.052 1079.1 302.552 1079.8 304.752 1079.8C306.952 1079.8 309.086 1079.33 311.152 1078.4C311.886 1078.13 312.419 1078.4 312.752 1079.2L314.552 1083.8C314.619 1084 314.652 1084.3 314.652 1084.7C314.652 1085.03 314.319 1085.4 313.652 1085.8C310.452 1087.4 306.652 1088.2 302.252 1088.2C296.319 1088.2 292.419 1086.67 290.552 1083.6C289.219 1081.6 288.452 1079.67 288.252 1077.8C287.986 1075.27 287.852 1072.6 287.852 1069.8V1045.7H282.152C281.152 1045.7 280.652 1045.2 280.652 1044.2V1039C280.652 1038 281.152 1037.5 282.152 1037.5H287.852V1024C287.852 1023 288.352 1022.5 289.352 1022.5H297.552C298.552 1022.5 299.052 1023 299.052 1024V1037.5H309.152C310.152 1037.5 310.652 1038 310.652 1039V1044.2C310.652 1045.2 310.152 1045.7 309.152 1045.7H299.052ZM368.886 1057.3V1053.8C368.886 1049.07 367.553 1046.1 364.886 1044.9C363.619 1044.37 361.786 1044.1 359.386 1044.1C354.853 1044.1 352.119 1046.23 351.186 1050.5C350.986 1051.5 350.486 1052 349.686 1052H343.286C342.219 1052 341.753 1051.5 341.886 1050.5C342.153 1045.63 344.119 1042.07 347.786 1039.8C351.453 1037.53 356.119 1036.4 361.786 1036.4C373.719 1036.4 379.686 1041.87 379.686 1052.8V1079.1H383.986C384.986 1079.1 385.486 1079.6 385.486 1080.6V1085.5C385.486 1086.5 384.986 1087 383.986 1087H372.186C371.319 1087 370.819 1086.5 370.686 1085.5L369.986 1080.9C366.386 1085.77 361.186 1088.2 354.386 1088.2C350.119 1088.2 346.586 1087.1 343.786 1084.9C340.986 1082.63 339.586 1079.03 339.586 1074.1C339.586 1067.63 342.286 1063.2 347.686 1060.8C352.153 1058.73 357.486 1057.6 363.686 1057.4C364.953 1057.4 366.686 1057.37 368.886 1057.3ZM369.086 1071.9V1064.2C362.686 1064.2 358.753 1064.5 357.286 1065.1C355.819 1065.7 354.519 1066.3 353.386 1066.9C351.253 1068.03 350.186 1070.1 350.186 1073.1C350.186 1077.7 352.819 1080 358.086 1080C361.553 1080 364.253 1079.2 366.186 1077.6C368.119 1075.93 369.086 1074.03 369.086 1071.9ZM428.547 1046.1C429.68 1043.43 431.514 1041.17 434.047 1039.3C436.58 1037.37 439.347 1036.4 442.347 1036.4C445.347 1036.4 447.647 1036.67 449.247 1037.2C450.047 1037.47 450.447 1038.07 450.447 1039V1052.5C450.447 1053.5 449.947 1054 448.947 1054H442.447C441.447 1054 440.98 1053.5 441.047 1052.5L441.447 1046.7C441.114 1046.63 440.547 1046.6 439.747 1046.6C436.68 1046.6 434.147 1047.87 432.147 1050.4C430.147 1052.87 429.147 1056.2 429.147 1060.4V1079.1H440.147C441.147 1079.1 441.647 1079.6 441.647 1080.6V1085.5C441.647 1086.5 441.147 1087 440.147 1087H412.647C411.647 1087 411.147 1086.5 411.147 1085.5V1080.6C411.147 1079.6 411.647 1079.1 412.647 1079.1H417.947V1045.7H412.547C411.547 1045.7 411.047 1045.2 411.047 1044.2V1039C411.047 1038 411.547 1037.5 412.547 1037.5H425.747C426.68 1037.5 427.247 1038 427.447 1039L428.547 1046.1ZM455.664 1019.1V1013.9C455.664 1012.9 456.164 1012.4 457.164 1012.4H472.264C473.264 1012.4 473.764 1012.9 473.764 1013.9V1044.7C477.497 1039.17 482.664 1036.4 489.264 1036.4C499.597 1036.4 504.764 1042.07 504.764 1053.4V1079.1H510.664C511.664 1079.1 512.164 1079.6 512.164 1080.6V1085.5C512.164 1086.5 511.664 1087 510.664 1087H488.764C487.764 1087 487.264 1086.5 487.264 1085.5V1080.6C487.264 1079.6 487.764 1079.1 488.764 1079.1H493.564V1058.4C493.564 1054.2 493.031 1051.13 491.964 1049.2C490.897 1047.27 488.697 1046.3 485.364 1046.3C482.031 1046.3 479.264 1047.3 477.064 1049.3C474.864 1051.3 473.764 1053.57 473.764 1056.1V1079.1H479.864C480.864 1079.1 481.364 1079.6 481.364 1080.6V1085.5C481.364 1086.5 480.864 1087 479.864 1087H457.164C456.164 1087 455.664 1086.5 455.664 1085.5V1080.6C455.664 1079.6 456.164 1079.1 457.164 1079.1H462.564V1020.6H457.164C456.164 1020.6 455.664 1020.1 455.664 1019.1ZM530.027 1038.9L541.727 1075.3L552.127 1045.7H547.027C546.027 1045.7 545.527 1045.2 545.527 1044.2V1039C545.527 1038 546.027 1037.5 547.027 1037.5H561.627C562.427 1037.5 562.961 1037.73 563.227 1038.2C563.494 1038.67 563.627 1039.1 563.627 1039.5C563.627 1039.83 563.561 1040.17 563.427 1040.5L542.027 1096.4C541.027 1098.93 540.161 1100.87 539.427 1102.2C538.761 1103.6 537.794 1105.07 536.527 1106.6C534.061 1109.53 530.427 1111 525.627 1111C520.827 1111 516.894 1110.27 513.827 1108.8C513.294 1108.53 513.027 1108.2 513.027 1107.8C513.027 1107.4 513.061 1107.1 513.127 1106.9L514.827 1102C515.094 1101.13 515.727 1100.83 516.727 1101.1C519.927 1102.17 522.527 1102.7 524.527 1102.7C526.594 1102.7 528.161 1102.17 529.227 1101.1C530.361 1100.1 531.527 1097.97 532.727 1094.7L535.227 1088.1L520.027 1045.7H515.027C514.027 1045.7 513.527 1045.2 513.527 1044.2V1039C513.527 1038 514.027 1037.5 515.027 1037.5H528.127C529.127 1037.5 529.761 1037.97 530.027 1038.9ZM567.883 1044.2V1039C567.883 1038 568.383 1037.5 569.383 1037.5H583.083C583.949 1037.5 584.449 1038 584.583 1039L585.383 1044.8C588.849 1039.2 594.049 1036.4 600.983 1036.4C607.916 1036.4 612.483 1039.33 614.683 1045.2C618.283 1039.33 623.516 1036.4 630.383 1036.4C640.716 1036.4 645.883 1042.07 645.883 1053.4V1079.1H651.583C652.583 1079.1 653.083 1079.6 653.083 1080.6V1085.5C653.083 1086.5 652.583 1087 651.583 1087H629.583C628.583 1087 628.083 1086.5 628.083 1085.5V1080.6C628.083 1079.6 628.583 1079.1 629.583 1079.1H634.683V1058.4C634.683 1054.2 634.149 1051.13 633.083 1049.2C632.016 1047.27 629.849 1046.3 626.583 1046.3C623.383 1046.3 620.816 1047.17 618.883 1048.9C616.949 1050.63 615.983 1052.67 615.983 1055V1079.1H620.783C621.783 1079.1 622.283 1079.6 622.283 1080.6V1085.5C622.283 1086.5 621.783 1087 620.783 1087H600.283C599.283 1087 598.783 1086.5 598.783 1085.5V1080.6C598.783 1079.6 599.283 1079.1 600.283 1079.1H604.783V1058.4C604.783 1054.2 604.249 1051.13 603.183 1049.2C602.116 1047.27 599.916 1046.3 596.583 1046.3C593.316 1046.3 590.716 1047.3 588.783 1049.3C586.916 1051.23 585.983 1053.5 585.983 1056.1V1079.1H592.083C593.083 1079.1 593.583 1079.6 593.583 1080.6V1085.5C593.583 1086.5 593.083 1087 592.083 1087H569.483C568.483 1087 567.983 1086.5 567.983 1085.5V1080.6C567.983 1079.6 568.483 1079.1 569.483 1079.1H574.783V1045.7H569.383C568.383 1045.7 567.883 1045.2 567.883 1044.2ZM681.141 1088.2C673.207 1088.2 667.374 1085.9 663.641 1081.3C659.974 1076.63 658.141 1070.5 658.141 1062.9C658.141 1055.23 660.107 1048.9 664.041 1043.9C667.974 1038.9 673.641 1036.4 681.041 1036.4C684.707 1036.4 687.841 1037.1 690.441 1038.5C693.107 1039.83 695.141 1041.67 696.541 1044C699.207 1048.53 700.541 1053.77 700.541 1059.7C700.541 1062.5 700.407 1064.03 700.141 1064.3C699.874 1064.57 699.374 1064.7 698.641 1064.7H669.241C669.574 1069.5 670.741 1073.23 672.741 1075.9C674.807 1078.5 678.341 1079.8 683.341 1079.8C687.007 1079.8 690.774 1078.93 694.641 1077.2C695.574 1076.73 696.241 1077 696.641 1078L698.541 1082.6C698.874 1083.4 698.574 1084.07 697.641 1084.6C693.241 1087 687.741 1088.2 681.141 1088.2ZM669.241 1057.3H690.041C690.174 1048.97 686.907 1044.8 680.241 1044.8C676.307 1044.8 673.507 1046.07 671.841 1048.6C670.241 1051.07 669.374 1053.97 669.241 1057.3Z" fill="black"/>
<path d="M246.142 546.858L396.858 396.142C404.668 388.332 417.332 388.332 425.142 396.142L575.858 546.858C583.668 554.668 583.668 567.332 575.858 575.142L425.142 725.858C417.332 733.668 404.668 733.668 396.858 725.858L246.142 575.142C238.332 567.332 238.332 554.668 246.142 546.858Z" fill="#F7081D"/>
<mask id="mask0_1021_553" style="mask-type:alpha" maskUnits="userSpaceOnUse" x="411" y="390" width="171" height="342">
<rect x="411" y="390" width="171" height="342" fill="#D9D9D9"/>
</mask>
<g mask="url(#mask0_1021_553)">
<path d="M246.142 546.858L396.858 396.142C404.668 388.332 417.332 388.332 425.142 396.142L575.858 546.858C583.668 554.668 583.668 567.332 575.858 575.142L425.142 725.858C417.332 733.668 404.668 733.668 396.858 725.858L246.142 575.142C238.332 567.332 238.332 554.668 246.142 546.858Z" fill="#DC1021"/>
</g>
<path d="M83.5355 366.464L126.464 323.536C128.417 321.583 131.583 321.583 133.536 323.536L176.464 366.464C178.417 368.417 178.417 371.583 176.464 373.536L133.536 416.464C131.583 418.417 128.417 418.417 126.464 416.464L83.5355 373.536C81.5829 371.583 81.5829 368.417 83.5355 366.464Z" fill="#F7081D"/>
<mask id="mask1_1021_553" style="mask-type:alpha" maskUnits="userSpaceOnUse" x="130" y="322" width="48" height="96">
<rect x="130" y="322.235" width="47.7654" height="95.5307" rx="5" fill="#D9D9D9"/>
</mask>
<g mask="url(#mask1_1021_553)">
<path d="M83.5355 366.464L126.464 323.536C128.417 321.583 131.583 321.583 133.536 323.536L176.464 366.464C178.417 368.417 178.417 371.583 176.464 373.536L133.536 416.464C131.583 418.417 128.417 418.417 126.464 416.464L83.5355 373.536C81.5829 371.583 81.5829 368.417 83.5355 366.464Z" fill="#DC1021"/>
</g>
<path d="M119.815 274.6C86.8152 274.6 69.2152 259.7 67.0152 229.9C66.8152 227.7 67.1152 226.2 67.9152 225.4C68.7152 224.6 70.2152 224.2 72.4152 224.2H88.9152C91.3152 224.2 92.9152 224.6 93.7152 225.4C94.5152 226 95.3152 228.6 96.1152 233.2C98.3152 244 106.615 249.4 121.015 249.4C149.815 249.4 164.715 227.3 165.715 183.1C155.115 197.9 139.915 205.3 120.115 205.3C100.515 205.3 85.7152 199.5 75.7152 187.9C65.7152 176.3 60.7152 160.7 60.7152 141.1C60.7152 121.3 66.7152 105 78.7152 92.2C90.7152 79.2 107.915 72.7 130.315 72.7C176.315 72.7 199.315 103 199.315 163.6C199.315 237.6 172.815 274.6 119.815 274.6ZM129.115 179.2C138.315 179.2 146.115 176.7 152.515 171.7C159.115 166.7 163.115 159.8 164.515 151C164.915 148.8 165.115 145.3 165.115 140.5C165.115 128.7 162.315 118.6 156.715 110.2C151.115 101.6 141.915 97.3 129.115 97.3C105.515 97.3 93.7152 111 93.7152 138.4C93.7152 165.6 105.515 179.2 129.115 179.2Z" fill="black"/>
</svg>
